cached_logos/tensor-flow-reinforcement-learning-trfl.svg

<svg id="Layer_1" data-name="Layer 1" xmlns="http://www.w3.org/2000/svg" viewBox="-5.2999999999999545 11.829049999999995 1003.6 288.08"><title>trfl</title><path d="M238.48659,18.3684v48.878H155.89887v227.164h-58.055V67.24642H14.88143V18.3684Z"/><path d="M449.0939,25.48458A68.18407,68.18407,0,0,1,474.935,44.7738a85.93768,85.93768,0,0,1,13.879,23.222q5.11323,12.73738,5.11475,29.02676,0,19.66469-9.92563,38.67288-9.92831,19.009-32.773,26.873,19.10151,7.68126,27.06113,21.81766,7.95771,14.14249,7.95924,43.16619v18.54212q0,18.91758,1.52163,25.656,2.28245,10.67426,10.65142,15.73113v6.92883H434.75036q-2.62517-9.17319-3.74544-14.79439a135.64549,135.64549,0,0,1-2.43476-23.78406l-.3747-25.65677q-.35528-26.40693-9.12369-35.20772-8.76995-8.80078-32.86054-8.80231H329.87661V294.41042H273.507V18.3684H405.54083Q433.84294,18.92815,449.0939,25.48458ZM329.87661,66.30968v74.16086H391.952q18.496,0,27.74578-4.49482,16.36324-7.86634,16.36325-31.08759,0-25.0932-15.8309-33.70892-8.89218-4.86878-26.67729-4.86953Z"/><path d="M549.17428,18.74157H745.99933V67.24642H606.48144v63.48507h122.288V178.6743h-122.288V294.41042H549.17428Z"/><path d="M783.4537,18.3684H841.134V244.783H978.96884v49.62741H783.4537Z"/></svg>

<svg xmlns="http://www.w3.org/2000/svg" role="img" viewBox="-5.28 -1.28 1002.56 314.56"><title>TensorFlow Reinforcement Learning (TRFL) logo</title><path d="M238.487 18.368v48.878h-82.588V294.41H97.844V67.246H14.88V18.368zm210.607 7.117a68.184 68.184 0 0 1 25.841 19.289 85.938 85.938 0 0 1 13.879 23.222q5.113 12.737 5.115 29.027 0 19.664-9.926 38.672-9.928 19.01-32.773 26.873 19.102 7.682 27.061 21.818 7.958 14.143 7.96 43.166v18.542q0 18.918 1.521 25.656 2.283 10.675 10.652 15.732v6.928H434.75q-2.625-9.173-3.745-14.794a135.645 135.645 0 0 1-2.435-23.784l-.375-25.657q-.355-26.407-9.123-35.208-8.77-8.8-32.86-8.802h-56.335V294.41h-56.37V18.368h132.034q28.302.56 43.553 7.117zM329.877 66.31v74.16h62.075q18.496 0 27.746-4.494 16.363-7.867 16.363-31.088 0-25.093-15.83-33.709-8.893-4.869-26.678-4.87zm219.297-47.568H746v48.504H606.481v63.485H728.77v47.943H606.481V294.41h-57.307zm234.28-.374h57.68v226.415h137.835v49.627H783.454z"/></svg>
